svg/insta.svg

<svg width="24" height="24" viewBox="0 0 24 24" fill="none" xmlns="http://www.w3.org/2000/svg">
<path fill-rule="evenodd" clip-rule="evenodd" d="M19.8456 5.59444C19.8456 6.38981 19.2008 7.03444 18.4056 7.03444C17.6104 7.03444 16.9656 6.38981 16.9656 5.59444C16.9656 4.79906 17.6104 4.15444 18.4056 4.15444C19.2009 4.15444 19.8456 4.79906 19.8456 5.59444ZM12 15.9999C9.79088 15.9999 8.00006 14.2091 8.00006 12C8.00006 9.79088 9.79088 8.00006 12 8.00006C14.2091 8.00006 15.9999 9.79088 15.9999 12C15.9999 14.2091 14.2091 15.9999 12 15.9999ZM12 5.83781C8.59669 5.83781 5.83781 8.59669 5.83781 12C5.83781 15.4033 8.59669 18.1622 12 18.1622C15.4033 18.1622 18.1622 15.4033 18.1622 12C18.1622 8.59669 15.4033 5.83781 12 5.83781ZM12 2.16225C15.2042 2.16225 15.5837 2.17444 16.8489 2.23219C18.0189 2.28562 18.6544 2.481 19.0772 2.64544C19.6373 2.86313 20.037 3.12319 20.457 3.54319C20.877 3.963 21.1371 4.36275 21.3547 4.923C21.519 5.34581 21.7146 5.98125 21.768 7.15125C21.8258 8.41669 21.8379 8.79619 21.8379 12.0004C21.8379 15.2046 21.8258 15.5841 21.768 16.8493C21.7146 18.0193 21.5192 18.6548 21.3547 19.0776C21.1371 19.6376 20.877 20.0374 20.457 20.4574C20.0372 20.8774 19.6374 21.1374 19.0772 21.3551C18.6544 21.5194 18.0189 21.7149 16.8489 21.7684C15.5837 21.8261 15.2042 21.8383 12 21.8383C8.79562 21.8383 8.41613 21.8261 7.15088 21.7684C5.98088 21.7149 5.34544 21.5196 4.92263 21.3551C4.36256 21.1374 3.96281 20.8774 3.54281 20.4574C3.123 20.0376 2.86275 19.6378 2.64506 19.0776C2.48081 18.6548 2.28525 18.0193 2.23181 16.8493C2.17406 15.5839 2.16188 15.2044 2.16188 12.0004C2.16188 8.79619 2.17406 8.41669 2.23181 7.15125C2.28525 5.98125 2.48063 5.34581 2.64506 4.923C2.86275 4.36294 3.12281 3.96319 3.54281 3.54319C3.96263 3.12319 4.36237 2.86313 4.92263 2.64544C5.34544 2.48119 5.98088 2.28562 7.15088 2.23219C8.41631 2.17444 8.79581 2.16225 12 2.16225ZM12 0C8.74106 0 8.33231 0.013875 7.05244 0.0721875C5.77519 0.1305 4.90275 0.333375 4.13962 0.63C3.35044 0.936562 2.68125 1.347 2.01412 2.01412C1.347 2.68125 0.936562 3.35044 0.63 4.13962C0.333375 4.90294 0.1305 5.77519 0.0721875 7.05244C0.013875 8.33231 0 8.74106 0 12C0 15.2589 0.013875 15.6677 0.0721875 16.9476C0.1305 18.2248 0.333375 19.0971 0.63 19.8604C0.936562 20.6496 1.347 21.3188 2.01412 21.9859C2.68125 22.653 3.35044 23.0632 4.13962 23.37C4.90294 23.6666 5.77519 23.8695 7.05244 23.9278C8.33231 23.9861 8.74106 24 12 24C15.2589 24 15.6677 23.9861 16.9476 23.9278C18.2248 23.8695 19.0971 23.6666 19.8604 23.37C20.6496 23.0632 21.3188 22.653 21.9859 21.9859C22.653 21.3188 23.0632 20.6496 23.37 19.8604C23.6666 19.0971 23.8695 18.2248 23.9278 16.9476C23.9861 15.6677 24 15.2589 24 12C24 8.74106 23.9861 8.33231 23.9278 7.05244C23.8695 5.77519 23.6666 4.90294 23.37 4.13962C23.0632 3.35044 22.653 2.68125 21.9859 2.01412C21.3188 1.347 20.6496 0.93675 19.8604 0.63C19.0971 0.333375 18.2248 0.1305 16.9476 0.0721875C15.6677 0.013875 15.2589 0 12 0Z" fill="url(#paint0_radial)"/>
<defs>
<radialGradient id="paint0_radial" cx="0" cy="0" r="1" gradientUnits="userSpaceOnUse" gradientTransform="translate(3.58333 24.0833) scale(30.666)">
<stop stop-color="#FFB140"/>
<stop offset="0.2559" stop-color="#FF5445"/>
<stop offset="0.599" stop-color="#FC2B82"/>
<stop offset="1" stop-color="#8E40B7"/>
</radialGradient>
</defs>
</svg>

<svg fill="none" xmlns="http://www.w3.org/2000/svg" viewBox="0 0 24 24"><path fill-rule="evenodd" clip-rule="evenodd" d="M19.846 5.594a1.44 1.44 0 11-2.88 0 1.44 1.44 0 012.88 0zM12 16a4 4 0 110-8 4 4 0 010 8zm0-10.162a6.162 6.162 0 100 12.324 6.162 6.162 0 000-12.324zm0-3.676c3.204 0 3.584.012 4.849.07 1.17.054 1.805.249 2.228.413.56.218.96.478 1.38.898.42.42.68.82.898 1.38.164.423.36 1.058.413 2.228.058 1.266.07 1.645.07 4.85 0 3.204-.012 3.583-.07 4.848-.053 1.17-.249 1.806-.413 2.229-.218.56-.478.96-.898 1.38-.42.42-.82.68-1.38.897-.423.164-1.058.36-2.228.413-1.265.058-1.645.07-4.849.07s-3.584-.012-4.85-.07c-1.17-.053-1.805-.248-2.227-.413a3.719 3.719 0 01-1.38-.898c-.42-.42-.68-.82-.898-1.38-.164-.422-.36-1.058-.413-2.228-.058-1.265-.07-1.645-.07-4.849s.012-3.583.07-4.849c.053-1.17.249-1.805.413-2.228.218-.56.478-.96.898-1.38.42-.42.82-.68 1.38-.898.422-.164 1.058-.36 2.228-.413 1.265-.058 1.645-.07 4.849-.07zM12 0C8.741 0 8.332.014 7.052.072 5.775.131 4.902.333 4.14.63a5.88 5.88 0 00-2.126 1.384A5.88 5.88 0 00.63 4.14c-.297.763-.5 1.635-.558 2.912C.014 8.332 0 8.742 0 12c0 3.259.014 3.668.072 4.948.059 1.277.261 2.15.558 2.912a5.88 5.88 0 001.384 2.126A5.884 5.884 0 004.14 23.37c.763.297 1.635.5 2.912.558 1.28.058 1.69.072 4.948.072 3.259 0 3.668-.014 4.948-.072 1.277-.059 2.15-.261 2.912-.558a5.883 5.883 0 002.126-1.384 5.883 5.883 0 001.384-2.126c.297-.763.5-1.635.558-2.912.058-1.28.072-1.69.072-4.948 0-3.259-.014-3.668-.072-4.948-.059-1.277-.261-2.15-.558-2.912a5.884 5.884 0 00-1.384-2.126A5.882 5.882 0 0019.86.63c-.763-.297-1.635-.5-2.912-.558C15.668.014 15.258 0 12 0z" fill="url(#paint0_radial)"/><defs><radialGradient id="paint0_radial" cx="0" cy="0" r="1" gradientUnits="userSpaceOnUse" gradientTransform="translate(3.583 24.083) scale(30.666)"><stop stop-color="#FFB140"/><stop offset=".256" stop-color="#FF5445"/><stop offset=".599" stop-color="#FC2B82"/><stop offset="1" stop-color="#8E40B7"/></radialGradient></defs></svg>
